app/ui/static/images/icons/solid/currency-euro.svg

<svg width="20" height="20" viewBox="0 0 20 20" fill="none" xmlns="http://www.w3.org/2000/svg">
<path fill-rule="evenodd" clip-rule="evenodd" d="M10 18C14.4183 18 18 14.4183 18 10C18 5.58172 14.4183 2 10 2C5.58172 2 2 5.58172 2 10C2 14.4183 5.58172 18 10 18ZM8.79767 7.45038C9.31032 6.78 9.93284 6.5 10.5 6.5C11.0672 6.5 11.6897 6.78 12.2023 7.45038C12.4539 7.77942 12.9247 7.84218 13.2537 7.59056C13.5827 7.33895 13.6455 6.86824 13.3939 6.53921C12.6373 5.54986 11.5963 5 10.5 5C9.40366 5 8.36269 5.54986 7.60613 6.53921C7.27168 6.97657 7.01308 7.47233 6.83031 8H5.75C5.33579 8 5 8.33579 5 8.75C5 9.16421 5.33579 9.5 5.75 9.5H6.51977C6.49341 9.83243 6.49341 10.1676 6.51977 10.5H5.75C5.33579 10.5 5 10.8358 5 11.25C5 11.6642 5.33579 12 5.75 12H6.83031C7.01308 12.5277 7.27168 13.0234 7.60613 13.4608C8.36269 14.4501 9.40366 15 10.5 15C11.5963 15 12.6373 14.4501 13.3939 13.4608C13.6455 13.1318 13.5827 12.661 13.2537 12.4094C12.9247 12.1578 12.4539 12.2206 12.2023 12.5496C11.6897 13.22 11.0672 13.5 10.5 13.5C9.93284 13.5 9.31032 13.22 8.79767 12.5496C8.66735 12.3792 8.55299 12.1948 8.4546 12H10.25C10.6642 12 11 11.6642 11 11.25C11 10.8358 10.6642 10.5 10.25 10.5H8.02592C7.99136 10.1685 7.99136 9.83152 8.02592 9.5H10.25C10.6642 9.5 11 9.16421 11 8.75C11 8.33579 10.6642 8 10.25 8H8.4546C8.55299 7.80515 8.66735 7.62081 8.79767 7.45038Z" fill="#0F172A"/>
</svg>

<svg xmlns="http://www.w3.org/2000/svg" viewBox="0 0 20 20" fill="currentColor" aria-hidden="true">
  <path fill-rule="evenodd" d="M10 18a8 8 0 100-16 8 8 0 000 16zM8.798 7.45c.512-.67 1.135-.95 1.702-.95s1.19.28 1.702.95a.75.75 0 001.192-.91C12.637 5.55 11.596 5 10.5 5s-2.137.55-2.894 1.54A5.205 5.205 0 006.83 8H5.75a.75.75 0 000 1.5h.77a6.333 6.333 0 000 1h-.77a.75.75 0 000 1.5h1.08c.183.528.442 1.023.776 1.46.757.99 1.798 1.54 2.894 1.54s2.137-.55 2.894-1.54a.75.75 0 00-1.192-.91c-.512.67-1.135.95-1.702.95s-1.19-.28-1.702-.95a3.505 3.505 0 01-.343-.55h1.795a.75.75 0 000-1.5H8.026a4.835 4.835 0 010-1h2.224a.75.75 0 000-1.5H8.455c.098-.195.212-.38.343-.55z" clip-rule="evenodd"/>
</svg>
